!!!COM: Corelli, Arcangelo
!!!OPR: Sonata da camera
!!!OPS: 4
!!!ONM: 7
!!!OMV: 4
!!!OTL: Sarabanda
!!!OMD: Vivace
**kern	**fb	**kern	**kern	**kern
*part4	*part4	*part3	*part2	*part1
*staff4	*	*staff3	*staff2	*staff1
*I"Organo	*	*I"Violone	*I"Violino II	*I"Violino I
*clefF4	*	*clefF4	*clefG2	*clefG2
*k[b-]	*	*k[b-]	*k[b-]	*k[b-]
*F:	*	*F:	*F:	*F:
*M3/4	*	*M3/4	*M3/4	*M3/4
=1	=1	=1	=1	=1
8r	.	8r	4r	2.ff
8F	.	8F	.	.
8AL	6	8AL	[2ff	.
8cJ	.	8cJ	.	.
8AL	.	8AL	.	.
8FJ	.	8FJ	.	.
=2	=2	=2	=2	=2
8B-L	6 5	8B-L	4ff]	2.gg
8GJ	.	8GJ	.	.
8cL	.	8cL	2ee	.
8B-J	.	8B-J	.	.
8cL	.	8cL	.	.
8CJ	.	8CJ	.	.
=3	=3	=3	=3	=3
8FL	.	8FL	4ff	2aa
8FJ	.	8FJ	.	.
8AL	6	8AL	4cc	.
8cJ	.	8cJ	.	.
8AL	.	8AL	[4ff	4aa
8FJ	.	8FJ	.	.
=4	=4	=4	=4	=4
8cL	5 4	8cL	4ff]	4gg
8CJ	.	8CJ	.	.
8EL	6	8EL	[2ee	4ccc
8GJ	.	8GJ	.	.
8EL	.	8EL	.	4cc
8CJ	.	8CJ	.	.
=5	=5	=5	=5	=5
8DL	9	8DL	4ee]	2.ff
8EJ	.	8EJ	.	.
8DL	8	8DL	4a	.
8CJ	.	8CJ	.	.
*C:	*	*C:	*C:	*C:
8BBnL	5	8BBnL	[4dd	.
8GGJ	.	8GGJ	.	.
=6	=6	=6	=6	=6
8CL	9	8CL	4dd]	2ee
8BBnJ	.	8BBnJ	.	.
8CL	8	8CL	4g	.
8DJ	.	8DJ	.	.
8EL	6	8EL	[4cc	4gg
8CJ	.	8CJ	.	.
=7	=7	=7	=7	=7
8FL	6 5	8FL	4cc]	4aa
8DJ	.	8DJ	.	.
8GL	n	8GL	2bn	2dd
8FJ	.	8FJ	.	.
8GL	.	8GL	.	.
8GGJ	.	8GGJ	.	.
=8	=8	=8	=8	=8
2.C	.	2.C	2.cc	2.cc
=9:|!|:	=9:|!|:	=9:|!|:	=9:|!|:	=9:|!|:
*B-:	*	*B-:	*B-:	*B-:
8r	.	8r	4cc	2.ff
8F	.	8F	.	.
8AL	6	8AL	4ff	.
8cJ	.	8cJ	.	.
8AL	.	8AL	4cc	.
8FJ	.	8FJ	.	.
=10	=10	=10	=10	=10
8B-L	.	8B-L	2.dd	2.ff
8BB-J	.	8BB-J	.	.
8DL	6	8DL	.	.
8FJ	.	8FJ	.	.
8DL	.	8DL	.	.
8BB-J	.	8BB-J	.	.
=11	=11	=11	=11	=11
*C:	*	*C:	*C:	*C:
8GGL	n	8GGL	4dd	2.gg
8GJ	.	8GJ	.	.
8BnL	6	8BnL	4gg	.
8dJ	.	8dJ	.	.
8BL	.	8BL	4dd	.
8GJ	.	8GJ	.	.
=12	=12	=12	=12	=12
8cL	.	8cL	2.ee	2.gg
8CJ	.	8CJ	.	.
8EL	6	8EL	.	.
8GJ	.	8GJ	.	.
8EL	.	8EL	.	.
8CJ	.	8CJ	.	.
=13	=13	=13	=13	=13
*d:	*	*d:	*d:	*d:
8AAL	#	8AAL	4ee	2.aa
8AJ	.	8AJ	.	.
8c#XL	6	8c#XL	4aa	.
8eJ	.	8eJ	.	.
8c#L	.	8c#L	4ee	.
8AJ	.	8AJ	.	.
=14	=14	=14	=14	=14
8dL	.	8dL	4.ff	4.aa
8DJ	.	8DJ	.	.
8FL	6	8FL	.	.
8AJ	.	8AJ	8ee	8gg
8FL	.	8FL	[4dd	[4ff
8DJ	.	8DJ	.	.
=15	=15	=15	=15	=15
8GL	6 5	8GL	8ddL]	8ffL]
8EJ	.	8EJ	8eeJ	8eeJ
8AL	#	8AL	2cc#X	2ee
8GJ	.	8GJ	.	.
8AL	.	8AL	.	.
8AAJ	.	8AAJ	.	.
=16	=16	=16	=16	=16
2.D	.	2.D	2.dd	2.dd
=17	=17	=17	=17	=17
*F:	*	*F:	*F:	*F:
8r	.	8r	2.ff	2.aa
8F	.	8F	.	.
8AL	6	8AL	.	.
8cJ	.	8cJ	.	.
8AL	.	8AL	.	.
8FJ	.	8FJ	.	.
=18	=18	=18	=18	=18
8B-L	.	8B-L	2.dd	2.ff
8BB-J	.	8BB-J	.	.
8DL	6	8DL	.	.
8FJ	.	8FJ	.	.
8DL	.	8DL	.	.
8BB-J	.	8BB-J	.	.
=19	=19	=19	=19	=19
8GGL	.	8GGL	2.gg	2.bb-
8GJ	.	8GJ	.	.
8B-L	6	8B-L	.	.
8dJ	.	8dJ	.	.
8B-L	.	8B-L	.	.
8GJ	.	8GJ	.	.
=20	=20	=20	=20	=20
8cL	.	8cL	2.ee	2.gg
8CJ	.	8CJ	.	.
8EL	6	8EL	.	.
8GJ	.	8GJ	.	.
8EL	.	8EL	.	.
8CJ	.	8CJ	.	.
=21	=21	=21	=21	=21
8AAL	6	8AAL	2.aa	2.ccc
8AJ	.	8AJ	.	.
8cL	6 4	8cL	.	.
8fJ	.	8fJ	.	.
8cL	.	8cL	.	.
8AJ	.	8AJ	.	.
=22	=22	=22	=22	=22
8B-L	.	8B-L	4dd	4ff
8dJ	.	8dJ	.	.
8GL	6	8GL	4ee	4gg
8cJ	.	8cJ	.	.
8FL	.	8FL	[4ff	[4aa
8AAJ	.	8AAJ	.	.
=23	=23	=23	=23	=23
8BB-L	7	8BB-L	8.ffL]	8.aaL]
8FJ	.	8FJ	.	.
.	.	.	16ggJk	16bb-Jk
4C	.	4C	2ee	2gg
4CC	.	4CC	.	.
=24	=24	=24	=24	=24
2.FF	.	2.FF	2.ff	2.ff
=25	=25	=25	=25	=25
8r	.	8r	2.ff	2.aa
8F	.	8F	.	.
8AL	6	8AL	.	.
8cJ	.	8cJ	.	.
8AL	.	8AL	.	.
8FJ	.	8FJ	.	.
=26	=26	=26	=26	=26
8B-L	.	8B-L	2.dd	2.ff
8BB-J	.	8BB-J	.	.
8DL	6	8DL	.	.
8FJ	.	8FJ	.	.
8DL	.	8DL	.	.
8BB-J	.	8BB-J	.	.
=27	=27	=27	=27	=27
8GGL	.	8GGL	2.gg	2.bb-
8GJ	.	8GJ	.	.
8B-L	6	8B-L	.	.
8dJ	.	8dJ	.	.
8B-L	.	8B-L	.	.
8GJ	.	8GJ	.	.
=28	=28	=28	=28	=28
8cL	.	8cL	2.ee	2.gg
8CJ	.	8CJ	.	.
8EL	6	8EL	.	.
8GJ	.	8GJ	.	.
8EL	.	8EL	.	.
8CJ	.	8CJ	.	.
=29	=29	=29	=29	=29
8AAL	6	8AAL	2.aa	2.ccc
8AJ	.	8AJ	.	.
8cL	6 4	8cL	.	.
8fJ	.	8fJ	.	.
8cL	.	8cL	.	.
8AJ	.	8AJ	.	.
=30	=30	=30	=30	=30
8B-L	.	8B-L	4dd	4ff
8dJ	.	8dJ	.	.
8GL	6	8GL	4ee	4gg
8cJ	.	8cJ	.	.
8FL	.	8FL	[4ff	[4aa
8AAJ	.	8AAJ	.	.
=31	=31	=31	=31	=31
8BB-L	7	8BB-L	8.ffL]	8.aaL]
8FJ	.	8FJ	.	.
.	.	.	16ggJk	16bb-Jk
4C	.	4C	2ee	2gg
4CC	.	4CC	.	.
=32	=32	=32	=32	=32
2.FF	.	2.FF	2.ff	2.ff
=:|!	=:|!	=:|!	=:|!	=:|!
*-	*-	*-	*-	*-
!!!system-decoration: [{s1,s2},s3,s4]
!!!YEM: CC BY-NC-SA 4.0; CCARH; DCML